src/assets/images/icons/join-the-team/medal.svg

<?xml version="1.0" encoding="UTF-8"?>
<svg width="20px" height="27px" viewBox="0 0 20 27" version="1.1" xmlns="http://www.w3.org/2000/svg" xmlns:xlink="http://www.w3.org/1999/xlink">
    <!-- Generator: Sketch 46.2 (44496) - http://www.bohemiancoding.com/sketch -->
    <title>Group 7</title>
    <desc>Created with Sketch.</desc>
    <defs></defs>
    <g id="Page-1" stroke="none" stroke-width="1" fill="none" fill-rule="evenodd">
        <g id="2.3-Join" transform="translate(-760.000000, -2131.000000)">
            <g id="clock_1x-copy-3" transform="translate(742.000000, 2116.000000)">
                <g id="Page-1" transform="translate(18.000000, 15.000000)">
                    <g id="Group-7">
                        <path d="M10.0006058,25.304519 C5.49463864,25.304519 1.82770946,21.9028689 1.82770946,17.7226702 C1.82770946,13.5424714 5.49463864,10.1396962 10.0006058,10.1396962 C14.506573,10.1396962 18.1728963,13.5424714 18.1728963,17.7226702 C18.1728963,21.9028689 14.506573,25.304519 10.0006058,25.304519 L10.0006058,25.304519 Z M7.27024899,1.68816801 L7.27024899,8.8143634 C6.42333555,9.04669042 5.62125159,9.3791487 4.87853638,9.79373711 L3.62755195,1.68816801 L7.27024899,1.68816801 Z M9.09311201,1.68816801 L10.8638759,1.68816801 L10.8638759,8.50271892 C10.5779366,8.47852991 10.2944205,8.44421526 10.0006058,8.44421526 C9.69164597,8.44421526 9.3935906,8.47909244 9.09311201,8.50609413 L9.09311201,1.68816801 Z M12.686739,1.68816801 L16.3857757,1.68816801 L15.1347913,9.79936246 C14.3757194,9.37464842 13.5548555,9.03543971 12.686739,8.80142509 L12.686739,1.68816801 Z M16.8861695,11.0206263 L18.2086388,0 L1.80529472,0 L3.12655237,11.0110632 C1.20918398,12.7014813 0,15.0748172 0,17.7226702 C0,22.8462404 4.4774944,27 10.0006058,27 C15.5231114,27 20,22.8462404 20,17.7226702 C20,15.0804425 18.7962682,12.7104819 16.8861695,11.0206263 L16.8861695,11.0206263 Z" id="Fill-1" fill="#3C4042"></path>
                        <path d="M7.75,1.5 L7.75,8.57106781" id="Line-2" stroke="#FF4343" stroke-width="1.5" stroke-linecap="square"></path>
                        <path d="M11.75,1.5 L11.75,8.57106781" id="Line-2-Copy" stroke="#FF4343" stroke-width="1.5" stroke-linecap="square"></path>
                    </g>
                </g>
            </g>
        </g>
    </g>
</svg>

<?xml version="1.0" encoding="utf-8"?>
<!-- Generator: Adobe Illustrator 21.1.0, SVG Export Plug-In . SVG Version: 6.00 Build 0)  -->
<svg version="1.1" id="Layer_1" xmlns="http://www.w3.org/2000/svg" xmlns:xlink="http://www.w3.org/1999/xlink" x="0px" y="0px"
	 viewBox="0 0 20 27" style="enable-background:new 0 0 20 27;" xml:space="preserve">
<style type="text/css">
	.st0{fill:#3C4042;}
	.st1{fill:none;stroke:#FF4343;stroke-width:1.5;stroke-linecap:square;}
	.st2{fill:#FF4343;}
</style>
<title>Group 7</title>
<desc>Created with Sketch.</desc>
<g id="Page-1_1_">
	<g id="_x32_.3-Join" transform="translate(-760.000000, -2131.000000)">
		<g id="clock_1x-copy-3" transform="translate(742.000000, 2116.000000)">
			<g id="Page-1" transform="translate(18.000000, 15.000000)">
				<g id="Group-7">
					<path id="Fill-1" class="st0" d="M10,25.3c-4.5,0-8.2-3.4-8.2-7.6s3.7-7.6,8.2-7.6s8.2,3.4,8.2,7.6S14.5,25.3,10,25.3L10,25.3z
						 M7.3,1.7v7.1C6.4,9,5.6,9.4,4.9,9.8L3.6,1.7H7.3z M9.1,1.7h1.8v6.8c-0.3,0-0.6-0.1-0.9-0.1c-0.3,0-0.6,0-0.9,0.1V1.7z
						 M12.7,1.7h3.7l-1.3,8.1c-0.8-0.4-1.6-0.8-2.4-1V1.7z M16.9,11l1.3-11H1.8l1.3,11C1.2,12.7,0,15.1,0,17.7C0,22.8,4.5,27,10,27
						c5.5,0,10-4.2,10-9.3C20,15.1,18.8,12.7,16.9,11L16.9,11z"/>
					<path id="Line-2_1_" class="st1" d="M-9.2,2.2"/>
					<path id="Line-2-Copy_1_" class="st1" d="M23.4,4.3"/>
				</g>
			</g>
		</g>
	</g>
</g>
<path class="st2" d="M9.1,8.5V1.7H7.3v7.1C7.9,8.6,8.5,8.5,9.1,8.5z"/>
<path class="st2" d="M10.9,8.5V1.7h1.8v7.1C12.1,8.6,11.5,8.5,10.9,8.5z"/>
</svg>
